32x32/apps/regexxer.svg

<svg height="32" width="32" xmlns="http://www.w3.org/2000/svg"><path d="m3.4 4c-.776 0-1.4.62-1.4 1.389v22.221c0 .771.624 1.39 1.4 1.39h25.2c.776 0 1.4-.62 1.4-1.389v-18.256c0-.77-.624-1.355-1.4-1.355h-10.08c-1.82 0-3.22-4-5.32-4z" opacity=".2"/><path d="m3.4 3c-.776 0-1.4.62-1.4 1.389v22.221c0 .771.624 1.39 1.4 1.39h25.2c.776 0 1.4-.62 1.4-1.389v-18.256c0-.77-.624-1.355-1.4-1.355h-10.08c-1.82 0-3.22-4-5.32-4z" fill="#ae9d6a"/><path d="m14.5 11.997c3.029 0 5.531 2.474 5.531 5.5 0 1.15-.389 2.207-1 3.093l3.688 3.688a1.006 1.006 0 0 1 -1.406 1.437l-3.688-3.687a5.513 5.513 0 0 1 -3.125.969c-3.029 0-5.5-2.475-5.5-5.5 0-3.026 2.471-5.5 5.5-5.5zm0 2a3.483 3.483 0 0 0 -3.5 3.5c0 1.945 1.553 3.5 3.5 3.5s3.5-1.555 3.5-3.5c0-1.946-1.553-3.5-3.5-3.5z" opacity=".2"/><path d="m14.5 10.997c3.029 0 5.531 2.474 5.531 5.5 0 1.15-.389 2.207-1 3.093l3.688 3.688a1.006 1.006 0 0 1 -1.406 1.437l-3.688-3.687a5.513 5.513 0 0 1 -3.125.969c-3.029 0-5.5-2.475-5.5-5.5 0-3.026 2.471-5.5 5.5-5.5zm0 2a3.483 3.483 0 0 0 -3.5 3.5c0 1.945 1.553 3.5 3.5 3.5s3.5-1.555 3.5-3.5c0-1.946-1.553-3.5-3.5-3.5z" fill="#f9f9f9"/><path d="m3.4 3c-.775 0-1.4.62-1.4 1.389v1c0-.77.625-1.389 1.4-1.389h9.8c2.1 0 3.5 4 5.32 4h10.08c.775 0 1.4.586 1.4 1.355v-1c0-.769-.625-1.355-1.4-1.355h-10.08c-1.82 0-3.22-4-5.32-4z" fill="#f4f4f7" opacity=".2"/></svg>

<svg xmlns="http://www.w3.org/2000/svg" width="32" height="32" version="1"><path d="M3.4 4C2.624 4 2 4.62 2 5.389V27.61C2 28.381 2.624 29 3.4 29h25.2c.776 0 1.4-.62 1.4-1.389V9.355C30 8.585 29.376 8 28.6 8H18.52C16.7 8 15.3 4 13.2 4z" style="opacity:.2"/><path style="fill:#ae9d6a" d="M3.4 3C2.624 3 2 3.62 2 4.389V26.61C2 27.381 2.624 28 3.4 28h25.2c.776 0 1.4-.62 1.4-1.389V8.355C30 7.585 29.376 7 28.6 7H18.52C16.7 7 15.3 3 13.2 3z"/><path d="M14.5 11.997c3.029 0 5.531 2.474 5.531 5.5 0 1.15-.389 2.207-1 3.093l3.688 3.688a1.006 1.006 0 0 1-1.406 1.437l-3.688-3.687a5.513 5.513 0 0 1-3.125.969c-3.029 0-5.5-2.475-5.5-5.5 0-3.026 2.471-5.5 5.5-5.5zm0 2a3.483 3.483 0 0 0-3.5 3.5c0 1.945 1.553 3.5 3.5 3.5s3.5-1.555 3.5-3.5c0-1.946-1.553-3.5-3.5-3.5z" style="opacity:.2"/><path style="fill:#f9f9f9" d="M14.5 10.997c3.029 0 5.531 2.474 5.531 5.5 0 1.15-.389 2.207-1 3.093l3.688 3.688a1.006 1.006 0 0 1-1.406 1.437l-3.688-3.687a5.513 5.513 0 0 1-3.125.969c-3.029 0-5.5-2.475-5.5-5.5 0-3.026 2.471-5.5 5.5-5.5zm0 2a3.483 3.483 0 0 0-3.5 3.5c0 1.945 1.553 3.5 3.5 3.5s3.5-1.555 3.5-3.5c0-1.946-1.553-3.5-3.5-3.5z"/><path style="fill:#f4f4f7;opacity:.2" d="M3.4 3C2.625 3 2 3.62 2 4.389v1C2 4.619 2.625 4 3.4 4h9.8c2.1 0 3.5 4 5.32 4H28.6c.775 0 1.4.586 1.4 1.355v-1C30 7.586 29.375 7 28.6 7H18.52C16.7 7 15.3 3 13.2 3H3.4z"/></svg>
